X: 14289
T: Gail Hendry's
R: jig
M: 6/8
K: Fmajor
|e|:fcA FCA,|cAF B,2 C|DGB CFA|B,DG A,CF|
fcA FCA,|cAF B,2 C|DGB CFA|B,D FF2 e:|
fcA FCA,|F,A,C A,CF|CFA FAc|Acf cfa|
fac' fdB|dfa dcA|CFA aca|gfe f3|
fcA FCA,|F,A,C A,CF|B,DF CEG|FAc cfa|
fac' fdB|fga fdc|AGF aca|gfe f3||
Acf Bdf|cAG FDF|Acf Bdf|FAc fag|
Acf Bdf|Acf GBf|FAf gaf|cAF CA,F|
Acf Bdf|cAG FDC|Acf Bdf|FAc fag|
Acf Bdf|Acf GBf|FAf aca|gfe f3||

